!!!COM:	Bach, Johann Sebastian
!!!CDT:	1685/02/21/-1750/07/28/
!!!OTL@@DE:	W&auml;r Gott nicht mit uns diese Zeit
!!!SCT:	BWV 14/5
!!!PC#:	182
!!!AGN:	chorale
**kern	**kern	**kern	**kern
*ICvox	*ICvox	*ICvox	*ICvox
*Ibass	*Itenor	*Ialto	*Isoprn
*I"Bass	*I"Tenor	*I"Alto	*I"Soprano
*>[A,A,B]	*>[A,A,B]	*>[A,A,B]	*>[A,A,B]
*>norep[A,B]	*>norep[A,B]	*>norep[A,B]	*>norep[A,B]
*>A	*>A	*>A	*>A
*clefF4	*clefGv2	*clefG2	*clefG2
*k[b-e-]	*k[b-e-]	*k[b-e-]	*k[b-e-]
*g:	*g:	*g:	*g:
*M4/4	*M4/4	*M4/4	*M4/4
*met(c)	*met(c)	*met(c)	*met(c)
*MM100	*MM100	*MM100	*MM100
4GG	8B-L	4d	8gL
.	8cJ	.	8aJ
=1	=1	=1	=1
8GL	4d	4g	4b-
8A-J	.	.	.
8GL	4d	4g	4b
8FJ	.	.	.
8E-L	4e-	4g	4cc
8DJ	.	.	.
8CL	4d	4g	4dd
8BBJ	.	.	.
=2	=2	=2	=2
8CL	8G	4e-	4cc
8E-J	4g	.	.
4G	.	4d	4b
.	8f	.	.
4C;	4e-;	4c;	4cc;
4C	4e-	8gL	4cc
.	.	8aJ	.
=3	=3	=3	=3
4D	4f	8b-XL	8b-XL
.	.	8B-J	8aJ
4E-	4g	8B-L	8gL
.	.	8cJ	8aJ
8DL	8fL	8dL	8b-L
8C	8e-J	8e-J	8ccJ
8BB-	8dL	8fL	4dd
[8E-J	8B-J	8gJ	.
=4	=4	=4	=4
8E-L]	4f	8a	8ccL
8D	.	4b-	8b-J
8E-	8gL	.	4cc
8FJ	16fL	8a	.
.	16e-JJ	.	.
4BB-;	4d;	4f;	4b-;
=:|!	=:|!	=:|!	=:|!
*>B	*>B	*>B	*>B
4AA	[4c	8fL	4cc
.	.	8e-J	.
=5	=5	=5	=5
8BB-L	8cL]	8dL	4dd
8CJ	8B-J	8eJ	.
8DL	8AL	8fL	8ccL
8EJ	8GJ	8gJ	8b-J
8FL	4.F	4c	4a
8E-J	.	.	.
4D	.	4f	4b-
.	8G	.	.
=6	=6	=6	=6
4C	8A	4e-X	8ccL
.	4G	.	8b-J
4D	.	8AL	4a
.	8F#	8dJ	.
4GG;	4B-;	4d;	4g;
8GL	4B	4d	4g
8FJ	.	.	.
=7	=7	=7	=7
4E-	4c	8gL	4cc
.	.	8a-J	.
4D	4d	8gL	4b
.	.	8fJ	.
4C	8GL	4e-	4cc
.	8AJ	.	.
4GG	8B-XL	8dL	8ddL
.	8AJ	8f#J	8ccJ
=8	=8	=8	=8
8GL	8GL	8g	8b-L
8FJ	8AJ	4d	8aJ
8EL	8B-L	.	4g
8AAJ	8AJ	8c#	.
4D;	4A;	4d;	4f;
8B-L	4B-	4d	4f
8AJ	.	.	.
=9	=9	=9	=9
8GL	8B-L	4d	4b-
8FJ	8AJ	.	.
8E-XL	4G	4g	4cc
8DJ	.	.	.
8CnXL	8AL	8f#L	4dd
8BB-J	16B-L	8dJ	.
.	16cJJ	.	.
8AAL	[4d	[4g	8ccL
8GGJ	.	.	8b-J
=10	=10	=10	=10
2D	4.d]	4g]	8aL
.	.	.	8gJ
.	.	4f#	4a
.	8c	.	.
4GG;	4B;	4d;	4g;
==	==	==	==
*-	*-	*-	*-
!!!hum2abc: -Q ''
!!!title: @{PC#}. @{OTL@@DE}
!!!YOR1: 371 vierstimmige Choralges&auml;nge von Johann Sebastian Bach, 
!!!YOR2: 4th ed. by Alfred D&ouml;rffel (Leipzig: Breitkopf und H&auml;rtel, 
!!!YOR2: c.1875). 178 pp. Plate "V.A.10".  reprint: J.S. Bach, 371 Four-Part 
!!!YOR4: Chorales (New York: Associated Music Publishers, Inc., c.1940).
!!!SMS: B&H, 4th ed, Alfred D&ouml;rffel, c.1875, plate V.A.10
!!!EED:  Craig Stuart Sapp
!!!EEV:  2009/05/22
